app/images/language.svg

<svg width="20" height="20" viewBox="0 0 20 20" fill="none" xmlns="http://www.w3.org/2000/svg">
<path d="M10 0C4.48625 0 0 4.48625 0 10C0 15.5138 4.48625 20 10 20C15.5138 20 20 15.5138 20 10C20 4.48625 15.5138 0 10 0ZM17.08 4.87875C16.0025 5.30625 14.895 5.645 13.7587 5.8675C13.2762 4.27875 12.51 2.7575 11.4575 1.38125C13.7625 1.77125 15.76 3.06 17.08 4.87875ZM12.83 12.725C10.9525 12.4675 9.04625 12.4675 7.16875 12.725C6.78375 10.9325 6.7825 9.0775 7.16625 7.28375C8.09875 7.41125 9.04125 7.5 10 7.5C10.9587 7.5 11.9 7.41125 12.8325 7.28375C13.2162 9.0775 13.215 10.9325 12.83 12.725ZM12.5063 6.06125C10.8425 6.27625 9.15625 6.27625 7.4925 6.06125C8.005 4.45375 8.8425 2.93 10 1.58C11.1575 2.93 11.9938 4.45375 12.5063 6.06125ZM8.54 1.38125C7.4875 2.7575 6.7225 4.27875 6.24 5.8675C5.105 5.645 3.9975 5.30625 2.92 4.87875C4.23875 3.06 6.23625 1.77125 8.54 1.38125ZM1.25 10C1.25 8.5425 1.61375 7.17 2.24625 5.96C3.44125 6.45125 4.6675 6.8375 5.92875 7.09125C5.5275 9.0125 5.5275 10.9963 5.93 12.9187C4.67 13.17 3.43875 13.5538 2.24625 14.0437C1.61375 12.8312 1.25 11.4587 1.25 10ZM2.92 15.1213C3.9975 14.6938 5.105 14.355 6.24 14.1325C6.7225 15.7212 7.48875 17.2425 8.54125 18.6188C6.23625 18.2288 4.23875 16.94 2.92 15.1213ZM7.49375 13.9388C9.15625 13.7238 10.8425 13.7238 12.5063 13.9388C11.9938 15.5463 11.1562 17.07 10 18.42C8.8425 17.07 8.00625 15.5463 7.49375 13.9388ZM11.4575 18.6188C12.51 17.2425 13.2762 15.7212 13.7587 14.1325C14.8938 14.355 16.0025 14.695 17.08 15.1213C15.76 16.94 13.7625 18.2288 11.4575 18.6188ZM14.0688 12.9163C14.4713 10.995 14.4725 9.01125 14.07 7.09C15.3312 6.83625 16.5588 6.45125 17.7537 5.95875C18.3862 7.17 18.75 8.5425 18.75 10C18.75 11.4587 18.3862 12.8313 17.7537 14.0413C16.5613 13.5525 15.33 13.1687 14.0688 12.9163Z" fill="#979797"/>
</svg>

<svg width="20" height="20" fill="none" xmlns="http://www.w3.org/2000/svg"><path d="M10 0C4.486 0 0 4.486 0 10s4.486 10 10 10 10-4.486 10-10S15.514 0 10 0zm7.08 4.879a18.81 18.81 0 0 1-3.321.989 14.138 14.138 0 0 0-2.302-4.487A8.755 8.755 0 0 1 17.08 4.88zm-4.25 7.846a20.84 20.84 0 0 0-5.661 0 12.982 12.982 0 0 1-.003-5.441C8.1 7.41 9.041 7.5 10 7.5c.959 0 1.9-.089 2.832-.216a12.983 12.983 0 0 1-.002 5.441zm-.324-6.664c-1.664.215-3.35.215-5.014 0A12.891 12.891 0 0 1 10 1.58a12.888 12.888 0 0 1 2.506 4.481zM8.54 1.381a14.135 14.135 0 0 0-2.3 4.486 18.83 18.83 0 0 1-3.32-.988A8.75 8.75 0 0 1 8.54 1.38zM1.25 10c0-1.457.364-2.83.996-4.04 1.195.491 2.422.878 3.683 1.131a14.234 14.234 0 0 0 .001 5.828c-1.26.251-2.491.635-3.684 1.125A8.714 8.714 0 0 1 1.25 10zm1.67 5.121a18.83 18.83 0 0 1 3.32-.989 14.14 14.14 0 0 0 2.301 4.487A8.75 8.75 0 0 1 2.92 15.12zm4.574-1.182a19.558 19.558 0 0 1 5.012 0A12.909 12.909 0 0 1 10 18.42a12.888 12.888 0 0 1-2.506-4.481zm3.963 4.68a14.14 14.14 0 0 0 2.302-4.486c1.135.222 2.244.562 3.321.988a8.756 8.756 0 0 1-5.622 3.498zm2.612-5.703c.402-1.921.403-3.905.001-5.826a20.03 20.03 0 0 0 3.684-1.131 8.704 8.704 0 0 1 0 8.082 20.145 20.145 0 0 0-3.685-1.125z" fill="#979797"/></svg>
